drag-horizontal.svg

<svg fill="currentColor" viewBox="0 0 24 24"><path d="M3 15v-2h2v2zm0-4V9h2v2zm4 4v-2h2v2zm0-4V9h2v2zm4 4v-2h2v2zm0-4V9h2v2zm4 4v-2h2v2zm0-4V9h2v2zm4 4v-2h2v2zm0-4V9h2v2z"/></svg>

<svg  viewBox="0 0 24 24" fill="currentColor"><path  d="M3,15V13H5V15H3M3,11V9H5V11H3M7,15V13H9V15H7M7,11V9H9V11H7M11,15V13H13V15H11M11,11V9H13V11H11M15,15V13H17V15H15M15,11V9H17V11H15M19,15V13H21V15H19M19,11V9H21V11H19Z"/></svg>
